X:441
T:Flowerdale (gairloch) 
C:Joe Buchanan's Scottish Tome - Page 499.2
I:499 2
C:J. Scott Skinner
Z:Jo Wegstein
R:March
L:1/8
M:C
K:Dmaj
A2 | d4 {B}(cB).A.G | F2 G2 A2 D2 | (G4G).F.E.D | C2 D2 E2 A2 |
d4 {B}(cB).A.G | FEFG ABAG | (FA,2>) {A,}(F2> E2) | (D4 D2) :|
A2 | d4 {e} dcde | f2 g2 a2 d2 | (g4g).f.e.d | c2 d2 e2 A2 |
d4 {e}dcde | fefg a2 g2 | (fA2>) f2> e | d4 d2> A2 |
d4{e}dcde | f2 g2 a2 d2 | g2 (ba) gfed | c2 d2 e2 A2 |
Bdce dfeg | fagb a2> g2 | (f2< A2) f2> e2 | (d4 d2) |]

